X: 21472
T: AH! BELLA A ME RITORNO
T: Air from "Norma."
C: Bellini
%R: air, march, reel
B: W. Hamilton "Universal Tune-Book" Vol. 2 Glasgow 1846 p.147 #2
S: http://s3-eu-west-1.amazonaws.com/itma.dl.printmaterial/book_pdfs/hamiltonvol2web.pdf
Z: 2016 John Chambers <jc:trillian.mit.edu>
N: The last measure is missing a beat.
M: C
L: 1/16
K: D
% - - - - - - - - - - - - - - - - - - - - - - - - -
A |\
A4 F3G A4 B4 | A4 d8 (F2A2) |\
(D2E2) (F2G2) B6 A2 | (A4- AGBG) E4 z2A2 |\
"_>"A4 F3G .A4 .B4 | A4 "^>"f8 {gf}e2d2 |\
c4 fe^de B4 fede |\
A8 Hz4 (A2=c2) |
B4 =c3B B4 B4 | (B6 G2 E4) G2_B2 |\
A4 B3A A4 A4 | A4 ABcd A4 z2 zA |\
A4 F3G A4 B4 | BA^GA "^>"d4 BAGA "^>"e4 |
BA^GA f4 cB^AB =g4 | A2f2e2d2 d2c2B2A2 |\
A2cB dced A2cB dced | B2e^d fegf agfe e=dcB |\
A2 a4 gf edcB AGFE | D8 z2"^D.C."z |]
% - - - - - - - - - - - - - - - - - - - - - - - - -

%%sep 1 1 500
%%sep 1 1 500

